svg/dots-triple.svg

<?xml version="1.0" encoding="UTF-8"?>
<svg xmlns="http://www.w3.org/2000/svg" xmlns:xlink="http://www.w3.org/1999/xlink" width="8" height="32" viewBox="0 0 8 32">
<path fill="none" stroke-width="4" stroke-linecap="round" stroke-linejoin="round" stroke="rgb(65.490196%, 65.490196%, 65.490196%)" stroke-opacity="1" stroke-miterlimit="4" d="M 4 4.332031 L 4 4.351562 M 4 16 L 4 16.015625 M 4 27.667969 L 4 27.683594 M 4 6 C 3.328125 6.023438 2.707031 5.640625 2.429688 5.03125 C 2.148438 4.421875 2.261719 3.703125 2.714844 3.207031 C 3.167969 2.710938 3.875 2.539062 4.507812 2.765625 C 5.257812 3.035156 5.714844 3.800781 5.589844 4.589844 C 5.464844 5.378906 4.800781 5.972656 4 6 M 4 17.667969 C 3.390625 17.6875 2.820312 17.371094 2.507812 16.847656 C 2.199219 16.324219 2.195312 15.671875 2.503906 15.148438 C 2.816406 14.625 3.390625 14.3125 4 14.335938 C 4.875 14.398438 5.554688 15.125 5.554688 16.003906 C 5.554688 16.878906 4.875 17.605469 4 17.667969 M 4 29.332031 C 3.558594 29.332031 3.132812 29.15625 2.820312 28.847656 C 2.507812 28.535156 2.332031 28.109375 2.332031 27.667969 C 2.332031 26.746094 3.074219 26 3.996094 26 C 4.917969 26 5.664062 26.742188 5.664062 27.664062 C 5.664062 28.585938 4.921875 29.332031 4 29.332031 M 4 29.332031 "/>
</svg>

<svg role="img" viewBox="0 0 8 32" xmlns="http://www.w3.org/2000/svg"><path d="M4 4.332v.02M4 16v.016m0 11.652v.016M4 6c-.61.02-1.18-.293-1.492-.816a1.665 1.665 0 0 1 2-2.418A1.664 1.664 0 0 1 5.59 4.59 1.67 1.67 0 0 1 4 6m0 11.668a1.674 1.674 0 0 1-1.496-2.52A1.67 1.67 0 0 1 4 14.336a1.669 1.669 0 0 1 0 3.332m0 11.664c-.441 0-.867-.176-1.18-.484a1.67 1.67 0 0 1-.488-1.18c0-.922.742-1.668 1.664-1.668s1.668.742 1.668 1.664S4.922 29.332 4 29.332m0 0" fill="none" stroke="rgb(65.490198%, 65.490198%, 65.490198%)" stroke-linecap="round" stroke-linejoin="round" stroke-width="4"/></svg>
